!!!OTL: BOM BAM BEIER
!!!ARE: Europa, Mitteleuropa, Deutschland, Niederrhein
!!!SCT: E1822
!!!YEM: Copyright 1995, estate of Helmut Schaffrath.
**kern
*ICvox
*Ivox
*M2/4
*k[f#]
*G:
=1
{4g
4a
=2
4b
8g}
{8d
=3
8g
8g
8a
8a
=4
4b
8g}
{8b
=5
8a
8a
4g
=6
8b
16a
16a
4g}
=7
{8.dd
16g
8g
8g
=8
8g
8f#
4g}
==
!!!AGN: Kinder -, Schaukel -, Reiter - Lied
!!!ONB: ESAC (Essen Associative Code) Database: ERK3
!!!AMT: simple duple
!!!AIN: vox
!!!EED: Helmut Schaffrath
!!!EEV: 1.0
*-
